img/light/stop.svg

<svg height="16" viewBox="0 0 16 16" width="16" xmlns="http://www.w3.org/2000/svg">
  <path
    d="m11 3c1.1045695 0 2 .8954305 2 2v6c0 1.1045695-.8954305 2-2 2h-6c-1.1045695 0-2-.8954305-2-2v-6c0-1.1045695.8954305-2 2-2zm0 1h-6c-.55228475 0-1 .44771525-1 1v6c0 .5522847.44771525 1 1 1h6c.5522847 0 1-.4477153 1-1v-6c0-.55228475-.4477153-1-1-1z"
    fill="#000000" />
</svg>

<?xml version="1.0" encoding="UTF-8"?>
<svg width="16px" height="16px" viewBox="0 0 16 16" version="1.1" xmlns="http://www.w3.org/2000/svg"
  xmlns:xlink="http://www.w3.org/1999/xlink">
  <title>stop</title>
  <g id="stop" stroke="none" stroke-width="1" fill="none" fill-rule="evenodd">
    <path
      d="M11,3 C12.1045695,3 13,3.8954305 13,5 L13,11 C13,12.1045695 12.1045695,13 11,13 L5,13 C3.8954305,13 3,12.1045695 3,11 L3,5 C3,3.8954305 3.8954305,3 5,3 L11,3 Z M11,4 L5,4 C4.44771525,4 4,4.44771525 4,5 L4,11 C4,11.5522847 4.44771525,12 5,12 L11,12 C11.5522847,12 12,11.5522847 12,11 L12,5 C12,4.44771525 11.5522847,4 11,4 Z"
      id="Rectangle" fill="#000000" fill-rule="nonzero"></path>
  </g>
</svg>
